X:3
T:Fischmatt-Juiz  Bb  ABAC
T:Anny Weber-Ambauen  (*1953)
T:Dirigenten-Notiz, Edi Gasser
C:Unterwalden (CH)
%%partsbox
P:ABAC
M:4/4
R:Naturjodel
L:1/8
K:Bb
[P:A] "ruhig fliessend"  B,D | F4DF Bc | d3e d2Fd  | c2F2 EF dc | B2dBF2B,D  | 
F4DF Bc | d3e d2Fd | c2fed2c2 | B6z2 || 
L:1/4
M:3/4
[P:B] "Walzertempo" d/c/ | B2F | D>Fd | cFf | e2 e/d/ | c2F | E>F d/c/ | B2d | 
F2d/c/ | B2F | d>cB | AFf | e2e/d/ | c2F | f>e d/c/ | B2d/c/ | 
B2F | D>Fd | cFf | e2e/d/ | c2F | E>F d/c/ | B2d | F2d/c/ | 
B2F | d>cB | AFf | e2e/d/ | c2F | f>e d/c/ | B2z || 
M:2/4
L:1/8
[P:C] "fliessend" FE | DF Bd | Ff ed | c2Ff | e2ed | 
c2Ff | e2dc | B2Ff | d2FE | DF Bd | 
Ff ed | c2Ff | e2ed | c2Ff | e2dc | (B4 | B2)z2 |] 
%W:Reihenfolge: A-B-A-C
W:
W: notiert Edi Gasser, nach Angaben Hans Schmid 
W:
W:UJV-Naturjodelsammlung: Code-Nr: 07-02
W:http://www.naturjodler.ch/code 07.htm  (with AUDIO)
%May 3, 2018

